X:1
T:Elofabiten
R:Polka
Z:Patrik Mnsson, 2008-11-17
O:Farstorp, Skne
S:efter Elof Lindahl
N:Upptecknad av Ragnar Carlsson, Hgahult, Farstorp. Inspelad p CDn Gingemusickanter, Det Spelar en Ging (G\~nINGE01)
M:2/4
L:1/16
K:F
|: C2CF A3F | F2E2 EGC2 | C2B2 BGE2 | F2c2 cAF2 | 
   C2CF A3F | F2E2 EGC2 | C2B2 BGE2 | F2F2 F4 :|
|: d2B2 BFBd | c2F2 A4 | C2EG BGEG | F2A2 c4 |
   d2B2 BFBd | c2F2 A4 | C2EG BGEG | F2F2 F4 :|
